src/images/photo-white.svg

<svg height="60" viewBox="0 0 60 60" width="60" xmlns="http://www.w3.org/2000/svg"><path d="m64.5 57.833v-46.666a6.686 6.686 0 0 0 -6.667-6.667h-46.666a6.686 6.686 0 0 0 -6.667 6.667v46.666a6.686 6.686 0 0 0 6.667 6.667h46.666a6.686 6.686 0 0 0 6.667-6.667zm-41.667-18.333 8.333 10.033 11.667-15.033 15 20h-46.666z" fill="#f8f8f6" transform="translate(-4.5 -4.5)"/></svg>

<svg xmlns="http://www.w3.org/2000/svg" width="60" height="60" viewBox="0 0 60 60">
  <path id="Icon_material-insert-photo" data-name="Icon material-insert-photo" d="M64.5,57.833V11.167A6.686,6.686,0,0,0,57.833,4.5H11.167A6.686,6.686,0,0,0,4.5,11.167V57.833A6.686,6.686,0,0,0,11.167,64.5H57.833A6.686,6.686,0,0,0,64.5,57.833ZM22.833,39.5l8.333,10.033L42.833,34.5l15,20H11.167Z" transform="translate(-4.5 -4.5)" fill="#f8f8f6"/>
</svg>
